X:1
T:King Henry, my Son
M:4/4
L:1/8
K:F
F/2-G/2| AA FA GF DC| DG EC D3F/2-G/2| AA FA GF D2|D-G EC D2|F-G| A2 FA GF DG|\
 D2 CB, C2 B,C| D2E/2-F/2 G A2 GA| F2 DE D2||
